X: 34624
T: Road To Athlone, The
R: slip jig
M: 9/8
K: Dmajor
|:d|ABG FGE DFB|AFD DFA B2 d|ABG FGE DFB|def edc B2:|
|:A|dcd edc BAF|dcd edc B2 d/e/|fdd edc Bcd|AFD DFA B2:|

